file/aer-lungus.svg

<svg viewBox="0 0 560 400" xmlns="http://www.w3.org/2000/svg" fill-rule="evenodd" clip-rule="evenodd"><path d="M489.55 202.03c-1.511 4.86-6.549 9.423-12.594 10.372.978 1.511 1.422 3.378 1.185 5.453-.652 5.63-6.045 10.164-11.824 10.224-3.912.03-9.216-1.659-12.95-7.557-3.349-5.245-3.823-13.572-3.586-16.091-4.089 4.178-6.638 8.238-7.853 11.053-2.726 6.371-3.763 14.135-3.704 17.78 0 0-.504.474-.978.563-1.511-.267-2.815-.83-3.793-1.689-1.185-1.067-1.452-2.074-1.452-2.074 1.808-9.038 4.682-14.669 8.979-21.099 5.779-8.683 14.698-14.046 25.277-17.276 7.645-2.341 15.587-2.845 21.04 1.778 2.934 2.43 3.112 5.927 2.252 8.564zm-45.043-4.801c-1.808 3.023-6.756 7.882-10.668 10.401-8.149 5.215-14.017 5.571-16.95 3.704-.356-.207-.652-.474-.919-.741-2.282-2.4-1.897-6.668.77-10.164 1.304-1.719 2.993-2.934 4.623-3.497-1.274-.593-2.134-1.837-2.311-3.586-.356-3.497 2.282-8.09 5.927-9.957 3.2-1.63 10.105-3.26 15.172 4.297 1.985 2.934 3.763 7.112 4.356 9.542zm33.486-31.767c-.445-4.356-5.097-5.956-10.224-3.763-2.43 1.037-4.564 2.786-6.075 4.771.237-1.985-.326-3.734-1.748-4.771-2.815-2.045-7.942-.533-11.438 3.26-1.215 1.334-5.186 6.134-5.393 13.187-.089 3.408 1.422 10.964 6.401 16.18 13.276-5.008 20.417-12.683 23.144-15.854 3.141-3.675 4.475-6.905 5.038-9.275.415-1.867.356-3.2.296-3.734z" fill="#82c341"/><path d="M472.659 178.471c3.141-3.675 4.475-6.905 5.038-9.275l.089-.385c-.652 2.637-6.223 9.453-13.928 15.261-8.001 6.016-12.565 9.038-14.313 10.224 13.246-4.978 20.388-12.653 23.114-15.824zM433.839 207.601c3.912-2.519 8.86-7.379 10.668-10.401-3.497 3.319-8.653 8.268-17.513 12.179-4.386 1.867-8.683 2.578-10.105 1.897 2.934 1.897 8.801 1.541 16.95-3.675zM489.55 202.03c.207-.652.356-1.334.415-2.045-.415 2.815-2.311 6.223-5.334 8.09-2.667 1.659-5.749 2.756-9.246 2.46.563.533 1.008.978 1.571 1.837 6.045-.919 11.083-5.482 12.594-10.342z" fill="#3cb14a"/><path d="M450.552 199.096c-9.512 6.816-12.742 19.084-13.276 34.701.474-.089.978-.563.978-.563-.059-3.645.978-11.379 3.704-17.78 1.215-2.815 3.763-6.875 7.853-11.053.296-2.786.622-4.415.83-5.334l-.089.03z" fill="#3cb14a"/><g fill="#006472"><path d="M307.334 215.454c5.512-2.786 7.497-8.446 7.497-12.979 0-5.067-1.541-9.068-4.534-12.002-.267-.267-.533-.504-.83-.741l4.741-7.912h-7.023l-3.023 5.067c-2.311-.77-4.741-1.126-6.964-1.126-4.415 0-8.831 1.571-12.09 4.326-2.578 2.193-5.66 6.104-5.66 12.387 0 10.905 8.208 13.572 16.15 16.18l4.415 1.393c4.712 1.393 7.557 2.252 7.557 5.956 0 1.689-.593 3.141-1.778 4.238-1.837 1.748-5.067 2.697-8.623 2.489-3.112-.178-9.72-.8-10.549-7.586h-6.816c0 8.653 7.734 14.135 17.336 14.135 6.164 0 10.727-1.748 13.78-4.712 2.4-2.311 3.675-5.304 3.675-8.653.059-4.741-2.519-8.446-7.26-10.461zm-1.096-6.342c-1.156 1.926-3.2 3.823-5.749 4.386 0 0-4.801-1.363-7.912-2.43-4.208-1.452-6.164-4.178-6.164-8.594 0-6.993 5.601-10.194 10.816-10.194 5.186 0 10.757 3.26 10.757 10.164 0 2.815-.682 4.89-1.748 6.668zM227.353 186.887h6.993v34.553h-6.993zM226.938 178.264c0-2.193 1.452-3.763 3.941-3.763 2.43 0 3.882 1.571 3.882 3.763 0 2.311-1.452 3.882-3.882 3.882-2.519-.03-3.941-1.571-3.941-3.882zM96.374 176.753h-7.26l-19.114 44.687h7.527l4.86-11.35h20.714l4.86 11.35h7.527l-19.114-44.687zm-11.468 27.174l7.794-18.254 7.794 18.254h-15.587zM200.209 176.753h-7.349v44.687h30.226v-6.164h-22.877v-38.523zM364.111 187.48c-3.734 1.659-5.779 4.652-5.927 8.12-.385 8.09 5.808 9.986 14.105 11.142 6.608.919 10.401 1.897 10.224 5.215-.059 1.008-.889 2.282-2.104 2.874-4.445 2.223-15.735 1.037-21.04-2.252l-1.452 5.897c3.2 2.074 8.001 3.289 12.565 3.497 4.949.237 9.957-.119 13.572-1.837 3.526-1.689 5.364-4.83 5.512-8.179.356-7.942-7.053-9.66-13.987-10.875-7.882-1.363-10.757-2.163-10.549-5.571.089-1.6 1.571-2.637 2.756-2.993 4.297-1.334 13.335-.445 18.639 2.46l1.393-5.956c-6.905-3.467-17.365-4.356-23.707-1.541zM257.579 186.265c-7.675 0-12.831 1.096-15.232 1.778l-.267.089v33.308h7.082v-28.418c2.4-.563 4.297-.741 8.06-.741 5.779 0 9.66 1.452 9.66 8.534v20.595h6.993v-20.269c-.03-9.838-5.512-14.876-16.298-14.876zM344.642 215.365c-2.282.504-4.356.682-8.06.682-5.956 0-9.66-1.422-9.66-8.475v-20.654h-6.993v20.329c0 9.838 5.482 14.846 16.269 14.846 7.231 0 11.735-.889 15.202-1.778l.296-.059v-33.338h-7.082v28.448h.03zM171.731 186.265c-4.623 0-8.475.889-11.053 2.726-3.852 2.726-5.364 6.845-5.364 12.179v20.269h6.993v-20.595c0-2.519.504-4.326 1.393-5.601 1.6-2.341 4.534-2.934 8.268-2.934 1.748 0 3.734.207 5.69.593l1.393-5.897c-2.193-.445-4.623-.741-7.319-.741zM149.24 200.785c-.83-9.512-6.49-14.491-16.535-14.491-10.875 0-16.654 5.867-16.654 17.01v1.748c0 11.142 6.371 17.01 18.402 17.01 4.89 0 9.542-.711 13.513-2.074l-1.482-5.867-.326.119c-2.282.859-6.549 1.808-11.705 1.808-5.038 0-11.024-1.6-11.172-9.068h26.048v-3.645c0-.919-.03-1.748-.089-2.548zm-16.535-8.475c4.178 0 9.127 1.511 9.483 8.475h-18.876c.267-5.541 3.497-8.475 9.394-8.475z"/></g></svg>

<?xml version="1.0" encoding="UTF-8" standalone="no"?>
<!DOCTYPE svg PUBLIC "-//W3C//DTD SVG 1.1//EN" "http://www.w3.org/Graphics/SVG/1.1/DTD/svg11.dtd">
<svg width="100%" height="100%" viewBox="0 0 560 400" version="1.1" xmlns="http://www.w3.org/2000/svg" xmlns:xlink="http://www.w3.org/1999/xlink" xml:space="preserve" xmlns:serif="http://www.serif.com/" style="fill-rule:evenodd;clip-rule:evenodd;stroke-linejoin:round;stroke-miterlimit:1.41421;">
    <g transform="matrix(1.14286,0,0,1.14286,-40.0003,-28.5717)">
        <path d="M489.55,202.03C488.039,206.89 483.001,211.453 476.956,212.402C477.934,213.913 478.378,215.78 478.141,217.855C477.489,223.485 472.096,228.019 466.317,228.079C462.405,228.109 457.101,226.42 453.367,220.522C450.018,215.277 449.544,206.95 449.781,204.431C445.692,208.609 443.143,212.669 441.928,215.484C439.202,221.855 438.165,229.619 438.224,233.264C438.224,233.264 437.72,233.738 437.246,233.827C435.735,233.56 434.431,232.997 433.453,232.138C432.268,231.071 432.001,230.064 432.001,230.064C433.809,221.026 436.683,215.395 440.98,208.965C446.759,200.282 455.678,194.919 466.257,191.689C473.902,189.348 481.844,188.844 487.297,193.467C490.231,195.897 490.409,199.394 489.549,202.031L489.55,202.03ZM444.507,197.229C442.699,200.252 437.751,205.111 433.839,207.63C425.69,212.845 419.822,213.201 416.889,211.334C416.533,211.127 416.237,210.86 415.97,210.593C413.688,208.193 414.073,203.925 416.74,200.429C418.044,198.71 419.733,197.495 421.363,196.932C420.089,196.339 419.229,195.095 419.052,193.346C418.696,189.849 421.334,185.256 424.979,183.389C428.179,181.759 435.084,180.129 440.151,187.686C442.136,190.62 443.914,194.798 444.507,197.228L444.507,197.229ZM477.993,165.462C477.548,161.106 472.896,159.506 467.769,161.699C465.339,162.736 463.205,164.485 461.694,166.47C461.931,164.485 461.368,162.736 459.946,161.699C457.131,159.654 452.004,161.166 448.508,164.959C447.293,166.293 443.322,171.093 443.115,178.146C443.026,181.554 444.537,189.11 449.516,194.326C462.792,189.318 469.933,181.643 472.66,178.472C475.801,174.797 477.135,171.567 477.698,169.197C478.113,167.33 478.054,165.997 477.994,165.463L477.993,165.462Z" style="fill:rgb(130,195,65);"/>
        <path d="M472.659,178.471C475.8,174.796 477.134,171.566 477.697,169.196L477.786,168.811C477.134,171.448 471.563,178.264 463.858,184.072C455.857,190.088 451.293,193.11 449.545,194.296C462.791,189.318 469.933,181.643 472.659,178.472L472.659,178.471ZM433.839,207.601C437.751,205.082 442.699,200.222 444.507,197.2C441.01,200.519 435.854,205.468 426.994,209.379C422.608,211.246 418.311,211.957 416.889,211.276C419.823,213.173 425.69,212.817 433.839,207.601ZM489.55,202.03C489.757,201.378 489.906,200.696 489.965,199.985C489.55,202.8 487.654,206.208 484.631,208.075C481.964,209.734 478.882,210.831 475.385,210.535C475.948,211.068 476.393,211.513 476.956,212.372C483.001,211.453 488.039,206.89 489.55,202.03Z" style="fill:rgb(60,177,74);"/>
        <path d="M450.552,199.096C441.04,205.912 437.81,218.18 437.276,233.797C437.75,233.708 438.254,233.234 438.254,233.234C438.195,229.589 439.232,221.855 441.958,215.454C443.173,212.639 445.721,208.579 449.811,204.401C450.107,201.615 450.433,199.986 450.641,199.067L450.552,199.097L450.552,199.096Z" style="fill:rgb(60,177,74);"/>
        <path d="M307.334,215.454C312.846,212.668 314.831,207.008 314.831,202.475C314.831,197.408 313.29,193.407 310.297,190.473C310.03,190.206 309.764,189.969 309.467,189.732L314.208,181.82L307.185,181.82L304.162,186.887C301.851,186.117 299.421,185.761 297.198,185.761C292.783,185.761 288.367,187.332 285.108,190.087C282.53,192.28 279.448,196.191 279.448,202.474C279.448,213.379 287.656,216.046 295.598,218.654L300.013,220.047C304.725,221.44 307.57,222.299 307.57,226.003C307.57,227.692 306.977,229.144 305.792,230.241C303.955,231.989 300.725,232.938 297.169,232.73C294.057,232.552 287.449,231.93 286.62,225.144L279.804,225.144C279.804,233.797 287.538,239.279 297.14,239.279C303.304,239.279 307.867,237.531 310.92,234.567C313.32,232.256 314.595,229.263 314.595,225.914C314.654,221.173 312.076,217.468 307.335,215.453L307.334,215.454ZM306.238,209.112C305.082,211.038 303.038,212.935 300.489,213.498C300.489,213.498 295.688,212.135 292.577,211.068C288.369,209.616 286.413,206.89 286.413,202.474C286.413,195.481 292.014,192.28 297.229,192.28C302.415,192.28 307.986,195.54 307.986,202.444C307.986,205.259 307.304,207.334 306.238,209.112ZM227.353,186.887L234.346,186.887L234.346,221.44L227.353,221.44L227.353,186.887ZM226.938,178.264C226.938,176.071 228.39,174.501 230.879,174.501C233.309,174.501 234.761,176.072 234.761,178.264C234.761,180.575 233.309,182.146 230.879,182.146C228.36,182.116 226.938,180.575 226.938,178.264ZM96.374,176.753L89.114,176.753L70,221.44L77.527,221.44L82.387,210.09L103.101,210.09L107.961,221.44L115.488,221.44L96.374,176.753ZM84.906,203.927L92.7,185.673L100.494,203.927L84.907,203.927L84.906,203.927ZM200.209,176.753L192.86,176.753L192.86,221.44L223.086,221.44L223.086,215.276L200.209,215.276L200.209,176.753ZM364.111,187.48C360.377,189.139 358.332,192.132 358.184,195.6C357.799,203.69 363.992,205.586 372.289,206.742C378.897,207.661 382.69,208.639 382.513,211.957C382.454,212.965 381.624,214.239 380.409,214.831C375.964,217.054 364.674,215.868 359.369,212.579L357.917,218.476C361.117,220.55 365.918,221.765 370.482,221.973C375.431,222.21 380.439,221.854 384.054,220.136C387.58,218.447 389.418,215.306 389.566,211.957C389.922,204.015 382.513,202.297 375.579,201.082C367.697,199.719 364.822,198.919 365.03,195.511C365.119,193.911 366.601,192.874 367.786,192.518C372.083,191.184 381.121,192.073 386.425,194.978L387.818,189.022C380.913,185.555 370.453,184.666 364.111,187.481L364.111,187.48ZM257.579,186.265C249.904,186.265 244.748,187.361 242.347,188.043L242.08,188.132L242.08,221.44L249.162,221.44L249.162,193.022C251.562,192.459 253.459,192.281 257.222,192.281C263.001,192.281 266.882,193.733 266.882,200.815L266.882,221.41L273.875,221.41L273.875,201.141C273.845,191.303 268.363,186.265 257.577,186.265L257.579,186.265ZM344.642,215.365C342.36,215.869 340.286,216.047 336.582,216.047C330.626,216.047 326.922,214.625 326.922,207.572L326.922,186.918L319.929,186.918L319.929,207.247C319.929,217.085 325.411,222.093 336.198,222.093C343.429,222.093 347.933,221.204 351.4,220.315L351.696,220.256L351.696,186.918L344.614,186.918L344.614,215.366L344.644,215.366L344.642,215.365ZM171.731,186.265C167.108,186.265 163.256,187.154 160.678,188.991C156.826,191.717 155.314,195.836 155.314,201.17L155.314,221.439L162.307,221.439L162.307,200.844C162.307,198.325 162.811,196.518 163.7,195.243C165.3,192.902 168.234,192.309 171.968,192.309C173.716,192.309 175.702,192.516 177.658,192.902L179.051,187.005C176.858,186.56 174.428,186.264 171.732,186.264L171.731,186.265ZM149.24,200.785C148.41,191.273 142.75,186.294 132.705,186.294C121.83,186.294 116.051,192.161 116.051,203.304L116.051,205.052C116.051,216.194 122.422,222.062 134.453,222.062C139.343,222.062 143.995,221.351 147.966,219.988L146.484,214.121L146.158,214.24C143.876,215.099 139.609,216.048 134.453,216.048C129.415,216.048 123.429,214.448 123.281,206.98L149.329,206.98L149.329,203.335C149.329,202.416 149.299,201.587 149.24,200.787L149.24,200.785ZM132.705,192.31C136.883,192.31 141.832,193.821 142.188,200.785L123.312,200.785C123.579,195.244 126.809,192.31 132.706,192.31L132.705,192.31Z" style="fill:rgb(0,100,114);"/>
    </g>
</svg>
